src/raw/bag/icon_32.svg

<svg width="32" height="32" viewBox="0 0 32 32" fill="none" xmlns="http://www.w3.org/2000/svg">
<path d="M28.0863 16.867C27.9188 16.0589 27.4619 15.3313 26.7937 14.8084C26.1255 14.2855 25.2874 13.9998 24.4226 14H7.57745C6.71261 13.9998 5.87451 14.2855 5.2063 14.8084C4.53809 15.3313 4.08123 16.0589 3.91374 16.867L2.07068 25.7559C1.96386 26.2712 1.97827 26.8027 2.11286 27.3121C2.24745 27.8215 2.49888 28.2961 2.84908 28.702C3.19928 29.1078 3.63955 29.4347 4.13822 29.6591C4.6369 29.8835 5.18159 30 5.73315 30H26.2669C26.8184 30 27.3631 29.8835 27.8618 29.6591C28.3605 29.4347 28.8007 29.1078 29.1509 28.702C29.5011 28.2961 29.7525 27.8215 29.8871 27.3121C30.0217 26.8027 30.0361 26.2712 29.9293 25.7559L28.0863 16.867Z" stroke="#71717A" stroke-width="1.5" stroke-linecap="round" stroke-linejoin="round"/>
<path d="M22 30V7C22 5.67392 21.3679 4.40215 20.2426 3.46447C19.1174 2.52678 17.5913 2 16 2C14.4087 2 12.8826 2.52678 11.7574 3.46447C10.6321 4.40215 10 5.67392 10 7V30" stroke="#71717A" stroke-width="1.5" stroke-linecap="round" stroke-linejoin="round"/>
</svg>

<svg xmlns="http://www.w3.org/2000/svg" width="32" height="32" fill="none" viewBox="0 0 32 32">
  <path stroke="#3F3F46" stroke-linecap="round" stroke-linejoin="round" stroke-width="2"
    d="M28.087 16.867a3.528 3.528 0 0 0-1.293-2.059A3.85 3.85 0 0 0 24.423 14H7.578a3.85 3.85 0 0 0-2.371.808 3.529 3.529 0 0 0-1.293 2.059l-1.843 8.889a3.39 3.39 0 0 0 .042 1.556c.135.51.386.984.737 1.39.35.406.79.733 1.289.957A3.89 3.89 0 0 0 5.734 30h20.533a3.89 3.89 0 0 0 1.595-.34 3.714 3.714 0 0 0 1.29-.958c.35-.406.601-.88.736-1.39a3.39 3.39 0 0 0 .042-1.556l-1.843-8.889Z" />
  <path stroke="#3F3F46" stroke-linecap="round" stroke-linejoin="round" stroke-width="2"
    d="M22 30V7c0-1.326-.632-2.598-1.757-3.536C19.118 2.527 17.592 2 16.001 2c-1.592 0-3.118.527-4.243 1.464C10.633 4.402 10 5.674 10 7v23" />
</svg>
